svg/black/nxt.svg

<svg xmlns="http://www.w3.org/2000/svg" width="32" height="32" viewBox="0 0 32 32">
  <path fill-rule="evenodd" d="M16,32 C7.163444,32 0,24.836556 0,16 C0,7.163444 7.163444,0 16,0 C24.836556,0 32,7.163444 32,16 C32,24.836556 24.836556,32 16,32 Z M26.082202,16.8333455 C26.5891806,16.8333455 27,16.4603103 27,15.9998206 C27,15.9998206 27,14.3333668 27,14.3333668 C27,13.8730656 26.5891806,13.5 26.082202,13.5 C26.082202,13.5 20.5518407,13.5 20.5518407,13.5 C20.0450494,13.5 19.6342567,13.8730656 19.6342567,14.3333668 C19.6342567,14.7934064 20.0450494,15.1664477 20.5518407,15.1664477 C20.5518407,15.1664477 25.1642166,15.1664477 25.1642166,15.1664477 C25.1642166,15.1664477 25.1642166,15.9998206 25.1642166,15.9998206 C25.1642166,16.4603103 25.5754107,16.8333455 26.082202,16.8333455 Z M21.5330645,16.8333455 C21.5330645,16.8333455 20.833065,16.8333455 20.833065,16.8333455 C20.833065,16.8333455 15.6010708,13.6535169 15.6010708,13.6535169 C15.4511947,13.5568047 15.2677154,13.5 15.0700374,13.5 C15.0700374,13.5 13.2346889,13.5 13.2346889,13.5 C12.7278575,13.5 12.317038,13.8730656 12.317038,14.3333668 C12.317038,14.7934064 12.7278575,15.1664477 13.2346889,15.1664477 C13.2346889,15.1664477 14.7771971,15.1664477 14.7771971,15.1664477 C14.7771971,15.1664477 20.1290373,18.4063169 20.1290373,18.4063169 C20.2555344,18.4661447 20.3991609,18.5 20.5518407,18.5 C20.5518407,18.5 21.5330645,18.5 21.5330645,18.5 C21.5330645,18.5 22.3870754,18.5 22.3870754,18.5 C22.3870754,18.5 23.36848,18.5 23.36848,18.5 C23.8750504,18.5 24.2858832,18.1269161 24.2858832,17.6664568 C24.2858832,17.2064172 23.8750504,16.8333455 23.36848,16.8333455 C23.36848,16.8333455 22.3870754,16.8333455 22.3870754,16.8333455 C22.3870754,16.8333455 21.5330645,16.8333455 21.5330645,16.8333455 Z M15.0701177,16.8333455 C15.0701177,16.8333455 13.5160202,16.8333455 13.5160202,16.8333455 C13.5160202,16.8333455 8.2842603,13.6535169 8.2842603,13.6535169 C8.13419013,13.5568047 7.95068405,13.5 7.75300602,13.5 C7.75300602,13.5 5.91772443,13.5 5.91772443,13.5 C5.41082611,13.5 5,13.8730656 5,14.3333668 C5,14.7934064 5.41082611,15.1664477 5.91772443,15.1664477 C5.91772443,15.1664477 7.45994497,15.1664477 7.45994497,15.1664477 C7.45994497,15.1664477 12.8118587,18.4063169 12.8118587,18.4063169 C12.9382421,18.4661447 13.0822969,18.5 13.2345484,18.5 C13.2345484,18.5 15.0701177,18.5 15.0701177,18.5 C15.5767149,18.5 15.987628,18.1269161 15.987628,17.6664568 C15.987628,17.2064172 15.5767149,16.8333455 15.0701177,16.8333455 Z M5.91772443,16.8332664 C5.41082611,16.8332664 5,17.206332 5,17.6666332 C5,18.1268432 5.41082611,18.4999209 5.91772443,18.4999209 C5.91772443,18.4999209 7.75300602,18.4999209 7.75300602,18.4999209 C8.25990434,18.4999209 8.670697,18.1268432 8.670697,17.6666332 C8.670697,17.206332 8.25990434,16.8332664 7.75300602,16.8332664 C7.75300602,16.8332664 5.91772443,16.8332664 5.91772443,16.8332664 Z"/>
</svg>

<svg xmlns="http://www.w3.org/2000/svg" width="32" height="32"><path fill-rule="evenodd" d="M16 32C7.163 32 0 24.837 0 16S7.163 0 16 0s16 7.163 16 16-7.163 16-16 16zm10.082-15.167c.507 0 .918-.373.918-.833v-1.667c0-.46-.41-.833-.918-.833h-5.53c-.507 0-.918.373-.918.833 0 .46.411.833.918.833h4.612V16c0 .46.411.833.918.833zm-4.549 0h-.7l-5.232-3.18a.979.979 0 0 0-.531-.153h-1.835c-.507 0-.918.373-.918.833 0 .46.41.833.918.833h1.542l5.352 3.24c.127.06.27.094.423.094h2.816c.507 0 .918-.373.918-.834 0-.46-.41-.833-.918-.833h-.98-.855zm-6.463 0h-1.554l-5.232-3.18a.98.98 0 0 0-.531-.153H5.918c-.507 0-.918.373-.918.833 0 .46.41.833.918.833H7.46l5.352 3.24c.126.06.27.094.423.094h1.835c.507 0 .918-.373.918-.834 0-.46-.411-.833-.918-.833zm-9.152 0c-.507 0-.918.373-.918.834 0 .46.41.833.918.833h1.835c.507 0 .918-.373.918-.833 0-.46-.411-.834-.918-.834H5.918z"/></svg>
